packages/admin/admin-icons/icons/help.svg

<svg xmlns="http://www.w3.org/2000/svg" width="16" height="16" viewBox="0 0 16 16"><path fill="#242424" fill-rule="evenodd" d="M8,0 C10.9296247,0 13.581254,1.58861071 14.9858712,4.09882317 C15.1207147,4.33980414 15.0346734,4.64447011 14.7936924,4.77931368 C14.5527114,4.91415724 14.2480455,4.82811588 14.1132019,4.58713492 L14.074,4.519 L11.1154405,6.40337982 C11.3337281,6.82846293 11.4675722,7.30404183 11.4948211,7.8079648 L11.5,8 C11.5,8.57515544 11.3612675,9.11790816 11.1154405,9.59662018 L14.0747184,11.4805775 C14.6633891,10.4553721 15,9.26699588 15,8 C15,7.72385763 15.2238576,7.5 15.5,7.5 C15.7761424,7.5 16,7.72385763 16,8 C16,12.418278 12.418278,16 8,16 C3.581722,16 0,12.418278 0,8 C0,3.581722 3.581722,0 8,0 Z M9.59662018,11.1154405 C9.11790816,11.3612675 8.57515544,11.5 8,11.5 C7.42484456,11.5 6.88209184,11.3612675 6.40337982,11.1154405 L4.51942245,14.0747184 C5.54462792,14.6633891 6.73300412,15 8,15 C9.26699588,15 10.4553721,14.6633891 11.4805775,14.0747184 Z M1,8 C1,9.26699588 1.33661088,10.4553721 1.9252816,11.4805775 L4.88455948,9.59662018 C4.6387325,9.11790816 4.5,8.57515544 4.5,8 C4.5,7.42484456 4.6387325,6.88209184 4.88455948,6.40337982 L1.9252816,4.51942245 C1.33661088,5.54462792 1,6.73300412 1,8 Z M8,5.5 C6.61928813,5.5 5.5,6.61928813 5.5,8 C5.5,9.38071187 6.61928813,10.5 8,10.5 C9.38071187,10.5 10.5,9.38071187 10.5,8 C10.5,6.61928813 9.38071187,5.5 8,5.5 Z M8,1 C6.73300412,1 5.54462792,1.33661088 4.51942245,1.9252816 L6.40337982,4.88455948 C6.88209184,4.6387325 7.42484456,4.5 8,4.5 C8.57515544,4.5 9.11790816,4.6387325 9.59662018,4.88455948 L11.4804017,1.92502342 C10.4439153,1.33088772 9.25101675,1 8,1 Z"/></svg>

<svg width="16" height="16" fill="none" viewBox="0 0 16 16">
  <path fill="#242424" fill-rule="evenodd" d="M8 0a7.997 7.997 0 0 1 6.986 4.099.5.5 0 0 1-.873.488 5.881 5.881 0 0 0-.038-.067l-2.96 1.883a3.498 3.498 0 0 1 .001 3.194l2.96 1.883A6.968 6.968 0 0 0 15 8a.5.5 0 0 1 1 0 8 8 0 1 1-8-8Zm3.48 14.075-1.883-2.96A3.485 3.485 0 0 1 8 11.5a3.485 3.485 0 0 1-1.597-.385l-1.883 2.96A6.967 6.967 0 0 0 8 15a6.967 6.967 0 0 0 3.48-.925ZM1.925 11.48l2.96-1.883A3.485 3.485 0 0 1 4.5 8c0-.575.139-1.118.385-1.597L1.925 4.52A6.968 6.968 0 0 0 1 8c0 1.267.337 2.455.925 3.48ZM4.52 1.925l1.883 2.96A3.485 3.485 0 0 1 8 4.5c.575 0 1.118.139 1.597.385l1.883-2.96A6.987 6.987 0 0 0 8 1a6.968 6.968 0 0 0-3.48.925ZM10.5 8a2.5 2.5 0 1 0-5 0 2.5 2.5 0 0 0 5 0Z" clip-rule="evenodd"/>
</svg>
